Pictures/typemaster-logo.svg

<svg width="50" height="50" viewBox="0 0 50 50" fill="none" xmlns="http://www.w3.org/2000/svg">
<g id="Group 3 Copy 3">
<rect id="Rectangle" width="50" height="50" rx="15" fill="#F16718"/>
<g id="Group 17">
<g id="Group 13">
<rect id="Rectangle_2" x="13" y="13" width="24" height="24" fill="white"/>
<g id="TM 2">
<path id="TM" fill-rule="evenodd" clip-rule="evenodd" d="M19.3781 23.0209C19.3781 23.134 19.3144 23.2 19.2051 23.2H17.8393C17.73 23.2 17.6663 23.134 17.6663 23.0209V18.2029C17.6663 18.1557 17.639 18.1274 17.5935 18.1274H16.173C16.0637 18.1274 16 18.0614 16 17.9483V16.7791C16 16.666 16.0637 16.6 16.173 16.6H20.9169C21.0262 16.6 21.0899 16.666 21.0899 16.7791V17.9483C21.0899 18.0614 21.0262 18.1274 20.9169 18.1274H19.451C19.4054 18.1274 19.3781 18.1557 19.3781 18.2029V23.0209ZM23.3208 23.0209C23.3208 23.134 23.257 23.2 23.1478 23.2H21.7819C21.6727 23.2 21.6089 23.134 21.6089 23.0209V16.7791C21.6089 16.666 21.6727 16.6 21.7819 16.6H23.1387C23.2297 16.6 23.3026 16.6377 23.3481 16.7226L24.4498 18.58C24.4772 18.6366 24.5318 18.6366 24.5591 18.58L25.6609 16.7226C25.7064 16.6377 25.7792 16.6 25.8703 16.6H27.227C27.3363 16.6 27.4 16.666 27.4 16.7791V23.0209C27.4 23.134 27.3363 23.2 27.227 23.2H25.8612C25.7519 23.2 25.6882 23.134 25.6882 23.0209V19.6926C25.6882 19.6171 25.6335 19.6077 25.5971 19.6643L25.0326 20.6354C24.9871 20.7203 24.9142 20.758 24.8232 20.758H24.1858C24.0947 20.758 24.0219 20.7203 23.9764 20.6354L23.4118 19.6643C23.3754 19.6077 23.3208 19.6171 23.3208 19.6926V23.0209Z" fill="#F16718"/>
</g>
</g>
</g>
</g>
</svg>

<svg xmlns="http://www.w3.org/2000/svg" width="50" height="50" fill="none"><rect width="50" height="50" fill="#F16718" rx="15"/><path fill="#fff" d="M13 13h24v24H13z"/><path fill="#F16718" fill-rule="evenodd" d="M19.378 23.02c0 .114-.064.18-.173.18H17.84c-.109 0-.173-.066-.173-.18v-4.817c0-.047-.027-.076-.073-.076h-1.42c-.11 0-.173-.066-.173-.179V16.78c0-.113.064-.179.173-.179h4.744c.11 0 .173.066.173.18v1.168c0 .113-.064.18-.173.18H19.45c-.046 0-.073.028-.073.075v4.818Zm3.943 0c0 .114-.064.18-.173.18h-1.366c-.11 0-.173-.066-.173-.18v-6.24c0-.114.064-.18.173-.18h1.357c.09 0 .164.038.21.123l1.1 1.857c.028.057.083.057.11 0l1.102-1.857a.222.222 0 0 1 .21-.123h1.356c.11 0 .173.066.173.18v6.24c0 .114-.064.18-.173.18h-1.366c-.11 0-.173-.066-.173-.18v-3.327c0-.076-.054-.085-.09-.029l-.565.971a.222.222 0 0 1-.21.123h-.637a.222.222 0 0 1-.21-.123l-.564-.97c-.037-.057-.091-.048-.091.028v3.328Z" clip-rule="evenodd"/></svg>
